X: 239
T: No_93_Chicken_Dance_Song_(b).krn
N: Derived from No_93_Chicken_Dance_Song_(b).krn
%%abc-version 2.0
%%abcx-abcm2ps-target-version 5.9.1 (29 Sep 2008)
%%abc-creator hum2abc beta
%%abcx-conversion-date 2019/03/15 08:38:45
%%humdrum-veritas 3751402629
%%humdrum-veritas-data 2763749335
%%linebreak <none>
%%barnumbers 0
L: 1/8
M: 2/4
K: F clef=bass
[K:clef=bass][M:2/4]C/G,3/ G,A, | 
G,4 ||  
[M:3/4]F,/D,3/ F,F,F,2 ||  
[M:2/4]A,/G,3/ G,A, | 
G,2z2 ||  
[M:3/4]F,/D,3/ F,F,F,2 ||  
[M:2/4]C/G,3/ G,A, | 
G,4 ||  
[M:3/4]F,/D,3/ F,F,F,2 |]  



